public/images/da17.svg

<svg width="100" height="100" viewBox="0 0 100 100" fill="none" xmlns="http://www.w3.org/2000/svg">
<path d="M3.74903 37.1243L1 38.4804V62.4662L3.74903 63.8249L3.76438 63.8045V37.1243H3.74903Z" fill="#8C3123"/>
<path d="M18.4617 60.3442L3.74903 63.8249V37.1243L18.4617 40.5185V60.3417" fill="#E05243"/>
<path d="M11.8221 54.8942L18.0624 55.6829L18.1008 55.5939L18.1366 45.4164L18.0624 45.3375L11.8221 46.1186V54.8942Z" fill="#8C3123"/>
<path d="M18.0624 60.3823L32.3732 63.8401L32.3962 63.8045V37.1369L32.3732 37.114L18.0624 40.5591V60.3823Z" fill="#8C3123"/>
<path d="M24.2925 54.8941L18.0496 55.6828V45.34L24.2925 46.1185V54.8941Z" fill="#E05243"/>
<path d="M24.2925 41.8771L18.0624 43.0068L11.8221 41.8771L18.0547 40.2538L24.2925 41.8771Z" fill="#5E1F18"/>
<path d="M24.2925 59.1254L18.0624 57.988L11.8221 59.1254L18.0547 60.8555L24.2925 59.1254Z" fill="#F2B0A9"/>
<path d="M11.8221 41.8771L18.0624 40.3505L18.1136 40.3352V30.0407L18.0624 30L11.8221 33.1016V41.8771Z" fill="#8C3123"/>
<path d="M24.2925 41.8771L18.0496 40.3505V30L24.2925 33.1016V41.8771Z" fill="#E05243"/>
<path d="M18.0624 70.9999L11.8195 67.9111V59.1254L18.0598 60.652L18.152 60.7563L18.1264 70.8142L18.0598 70.9923" fill="#8C3123"/>
<path d="M18.0624 71L24.2925 67.9112V59.1254L18.0496 60.6521V70.9924M32.3732 37.1243L35.1248 38.4906V62.4662L32.3732 63.8402V37.1243Z" fill="#E05243"/>
<path d="M75.0318 41.5591V40.2869C75.0303 40.2438 75.0378 40.2008 75.0538 40.1606C75.0698 40.1205 75.0938 40.084 75.1246 40.0535C75.1553 40.0229 75.192 39.999 75.2323 39.9831C75.2727 39.9673 75.316 39.9598 75.3594 39.9612H81.139C81.1826 39.9598 81.2261 39.9673 81.2668 39.9831C81.3074 39.9989 81.3444 40.0228 81.3756 40.0532C81.4067 40.0837 81.4312 40.1201 81.4478 40.1603C81.4643 40.2004 81.4725 40.2435 81.4718 40.2869V41.3734C81.4718 41.5566 81.3131 41.7983 81.0366 42.1799L78.0444 46.4316C79.1868 46.3676 80.3255 46.6101 81.3412 47.1338C81.4334 47.1837 81.5105 47.2572 81.5645 47.3467C81.6185 47.4361 81.6474 47.5383 81.6484 47.6427V49.0116C81.6484 49.1973 81.441 49.4161 81.2235 49.3042C80.2797 48.82 79.2331 48.5673 78.1711 48.5673C77.1091 48.5673 76.0625 48.82 75.1188 49.3042C74.9191 49.4136 74.7092 49.1948 74.7092 49.009V47.7088C74.69 47.4001 74.7639 47.0926 74.9217 46.8259L78.39 41.8797H75.3645C75.321 41.8814 75.2776 41.8743 75.2369 41.8588C75.1963 41.8433 75.1592 41.8196 75.1281 41.7894C75.0969 41.7591 75.0723 41.7229 75.0558 41.6829C75.0392 41.6428 75.031 41.5998 75.0318 41.5565" fill="#201C1D"/>
<path d="M53.9508 49.5636H52.1923C52.1127 49.5598 52.0371 49.5276 51.9793 49.4729C51.9215 49.4183 51.8854 49.3448 51.8775 49.266V40.297C51.8782 40.2537 51.8874 40.211 51.9048 40.1712C51.9222 40.1315 51.9473 40.0956 51.9787 40.0655C52.0101 40.0355 52.0472 40.0119 52.0878 39.9962C52.1284 39.9805 52.1718 39.9729 52.2154 39.9739H53.8535C53.9346 39.9761 54.0121 40.008 54.0711 40.0633C54.1301 40.1187 54.1666 40.1938 54.1735 40.2741V41.4496H54.2067C54.6342 40.3174 55.4379 39.7882 56.5104 39.7882C57.5829 39.7882 58.3021 40.3174 58.7936 41.4496C58.9566 41.023 59.2306 40.6469 59.5876 40.3598C59.9446 40.0728 60.3718 39.885 60.8257 39.8157C61.2795 39.7464 61.7437 39.798 62.171 39.9652C62.5982 40.1325 62.9731 40.4094 63.2575 40.7678C63.813 41.5311 63.7004 42.6175 63.7004 43.5793V49.2405C63.6997 49.2839 63.6904 49.3268 63.6731 49.3667C63.6557 49.4066 63.6307 49.4427 63.5993 49.4729C63.5679 49.5032 63.5308 49.527 63.4902 49.543C63.4496 49.559 63.4062 49.5669 63.3625 49.5662H61.6066C61.5221 49.5617 61.4425 49.5257 61.3836 49.4653C61.3247 49.4049 61.291 49.3246 61.2892 49.2405V44.4851C61.3153 43.924 61.2991 43.3619 61.2406 42.8032C61.11 42.2002 60.7286 42.0399 60.2167 42.0399C59.9882 42.0466 59.7667 42.1199 59.5796 42.2506C59.3926 42.3813 59.2483 42.5637 59.1647 42.7753C58.983 43.2282 59.0009 43.9838 59.0009 44.4927V49.2405C59.0002 49.2839 58.991 49.3268 58.9736 49.3667C58.9563 49.4066 58.9312 49.4427 58.8998 49.4729C58.8685 49.5032 58.8314 49.527 58.7908 49.543C58.7501 49.559 58.7067 49.5669 58.663 49.5662H56.9071C56.8224 49.5623 56.7424 49.5264 56.6835 49.4659C56.6245 49.4054 56.591 49.3248 56.5897 49.2405V44.4851C56.5897 43.4851 56.7561 42.0119 55.507 42.0119C54.2579 42.0119 54.2938 43.447 54.2938 44.4851V49.2405C54.2931 49.2839 54.2838 49.3268 54.2665 49.3667C54.2491 49.4066 54.2241 49.4427 54.1927 49.4729C54.1613 49.5032 54.1243 49.527 54.0836 49.543C54.043 49.559 53.9996 49.5669 53.9559 49.5662" fill="#201C1D"/>
<path d="M86.4451 39.7856C89.0533 39.7856 90.4662 42.012 90.4662 44.8439C90.4662 47.5791 88.9049 49.7494 86.4451 49.7494C83.8855 49.7494 82.4879 47.5231 82.4879 44.7472C82.4879 41.9713 83.9008 39.7856 86.4451 39.7856ZM86.4604 41.6176C85.1653 41.6176 85.0834 43.3732 85.0834 44.4673C85.0834 45.5614 85.0655 47.9022 86.4451 47.9022C87.8247 47.9022 87.8708 46.0143 87.8708 44.8642C87.9016 44.0631 87.8154 43.2617 87.6148 42.4852C87.5605 42.2273 87.4144 41.9974 87.2032 41.838C86.9921 41.6786 86.7301 41.6004 86.4656 41.6176" fill="#201C1D"/>
<path d="M93.8475 49.5637H92.0967C92.0122 49.5592 91.9326 49.5231 91.8737 49.4627C91.8149 49.4023 91.7811 49.3221 91.7793 49.238V40.2691C91.7889 40.1863 91.8296 40.1103 91.8932 40.056C91.9568 40.0018 92.0386 39.9734 92.1223 39.9765H93.7528C93.826 39.9789 93.8965 40.005 93.9533 40.051C94.0102 40.0969 94.0503 40.1601 94.0676 40.2309V41.6023H94.1009C94.5923 40.3759 95.2834 39.7907 96.4967 39.7907C96.9013 39.7723 97.3036 39.8602 97.6631 40.0456C98.0226 40.2309 98.3266 40.5073 98.5444 40.8467C99.0051 41.5642 99.0051 42.7702 99.0051 43.6455V49.2812C98.9922 49.3608 98.951 49.433 98.889 49.4849C98.827 49.5367 98.7483 49.5647 98.6673 49.5637H96.9037C96.8268 49.5598 96.7537 49.5295 96.6967 49.478C96.6398 49.4265 96.6026 49.357 96.5914 49.2812V44.4088C96.5914 43.4292 96.704 41.9916 95.4908 41.9916C95.2686 41.9999 95.0536 42.0722 94.8719 42.1995C94.6901 42.3269 94.5495 42.5039 94.4669 42.7091C94.2499 43.2486 94.1547 43.8288 94.1879 44.4088V49.2431C94.1852 49.3313 94.1478 49.4149 94.0836 49.4758C94.0194 49.5367 93.9337 49.5701 93.8449 49.5688" fill="#201C1D"/>
<path d="M50.5081 47.92C50.1856 47.4773 49.8451 47.1185 49.8451 46.2992V43.5767C49.8451 42.4241 49.9271 41.3657 49.0773 40.5718C48.4015 39.9281 47.2855 39.7017 46.4281 39.7017C44.7566 39.7017 42.8907 40.3199 42.4965 42.3758C42.4884 42.4166 42.4886 42.4587 42.4972 42.4994C42.5058 42.5401 42.5225 42.5787 42.5464 42.6129C42.5703 42.6471 42.6008 42.6761 42.6362 42.6983C42.6716 42.7206 42.7111 42.7355 42.7525 42.7422L44.4597 42.9228C44.5395 42.9105 44.6131 42.8725 44.6691 42.8146C44.725 42.7566 44.7603 42.682 44.7694 42.6022C44.9153 41.8949 45.5143 41.554 46.1849 41.554C46.3739 41.5456 46.5621 41.5826 46.7336 41.6619C46.9052 41.7412 47.055 41.8604 47.1703 42.0094C47.4263 42.3682 47.3828 42.8592 47.3828 43.2816V43.508C46.359 43.6225 45.0305 43.6963 44.0758 44.1161C43.5059 44.3433 43.0203 44.7394 42.6851 45.2507C42.3498 45.762 42.1812 46.3635 42.2021 46.9735C42.2021 48.7902 43.354 49.696 44.8334 49.696C46.0851 49.696 46.7659 49.4033 47.7309 48.4238C47.9922 48.8697 48.3321 49.2653 48.7343 49.5916C48.7994 49.6276 48.8739 49.6429 48.948 49.6357C49.0221 49.6284 49.0922 49.5988 49.1489 49.5509C49.4996 49.2405 50.1369 48.6884 50.4953 48.3907C50.5278 48.361 50.554 48.325 50.5723 48.2851C50.5905 48.2451 50.6006 48.2019 50.6018 48.158C50.603 48.1141 50.5953 48.0705 50.5792 48.0296C50.5631 47.9887 50.5389 47.9514 50.5081 47.92ZM47.0475 47.1338C46.9352 47.3624 46.763 47.5567 46.5491 47.6964C46.3352 47.8361 46.0873 47.916 45.8317 47.9276C45.1559 47.9276 44.7643 47.4187 44.7643 46.6554C44.7643 45.167 46.1081 44.8947 47.3777 44.8947V45.2738C47.3777 45.9608 47.393 46.5384 47.0475 47.1338Z" fill="#201C1D"/>
<path d="M73.5549 47.92C73.2323 47.4773 72.8919 47.1185 72.8919 46.2992V43.5767C72.8919 42.4241 72.9738 41.3657 72.124 40.5718C71.4483 39.9281 70.3323 39.7017 69.4748 39.7017C67.8034 39.7017 65.9349 40.3199 65.5433 42.3758C65.5348 42.4167 65.5348 42.4588 65.5432 42.4997C65.5516 42.5405 65.5683 42.5793 65.5922 42.6135C65.6162 42.6478 65.6468 42.6769 65.6824 42.699C65.718 42.7211 65.7578 42.7358 65.7992 42.7422L67.5039 42.9228C67.5833 42.91 67.6563 42.8717 67.7117 42.8139C67.7672 42.756 67.8021 42.6817 67.8111 42.6022C67.957 41.8949 68.5534 41.554 69.224 41.554C69.4131 41.545 69.6015 41.5817 69.7732 41.661C69.9448 41.7403 70.0945 41.8599 70.2094 42.0094C70.4654 42.3682 70.4245 42.8592 70.4245 43.2816V43.508C69.4006 43.6225 68.0722 43.6963 67.1174 44.1161C66.5495 44.3428 66.0654 44.7375 65.7307 45.2468C65.3961 45.756 65.227 46.3553 65.2463 46.9633C65.2463 48.78 66.3956 49.6858 67.8776 49.6858C69.1267 49.6858 69.8101 49.3932 70.7751 48.4136C71.0354 48.864 71.3763 49.2632 71.781 49.5916C71.8461 49.6276 71.9207 49.6429 71.9948 49.6357C72.0689 49.6284 72.139 49.5988 72.1957 49.5509C72.5464 49.2405 73.1837 48.6884 73.5421 48.3907C73.5743 48.3608 73.6002 48.3248 73.6182 48.2849C73.6363 48.2449 73.6463 48.2018 73.6475 48.158C73.6486 48.1142 73.6411 48.0706 73.6252 48.0298C73.6093 47.9889 73.5854 47.9516 73.5549 47.92ZM70.0968 47.1338C69.9843 47.3622 69.8121 47.5564 69.5982 47.6961C69.3843 47.8357 69.1366 47.9157 68.881 47.9276C68.2053 47.9276 67.8111 47.4187 67.8111 46.6554C67.8111 45.167 69.1549 44.8947 70.427 44.8947V45.2738C70.4244 45.9608 70.4424 46.5384 70.0943 47.1338H70.0968Z" fill="#201C1D"/>
<path d="M48.1942 59.1585C48.0006 58.7772 47.718 58.4474 47.37 58.1968C46.9072 57.8925 46.414 57.6367 45.8982 57.4335C45.3479 57.2339 44.8303 56.9544 44.3624 56.604C44.2298 56.4814 44.1254 56.3318 44.0565 56.1653C43.9876 55.9989 43.9557 55.8195 43.9631 55.6397C43.9597 55.286 44.0842 54.9429 44.3138 54.6728C44.437 54.53 44.5915 54.4171 44.7655 54.343C44.9394 54.2689 45.1282 54.2355 45.3172 54.2454C45.5191 54.2351 45.721 54.2666 45.9101 54.338C46.0991 54.4094 46.2711 54.5191 46.4153 54.6601C46.712 55.0025 46.9233 55.4095 47.0321 55.8483L48.2531 55.3801C47.8307 53.7696 46.8632 52.9554 45.3812 52.9554C45 52.9393 44.6197 53.0051 44.2664 53.1483C43.9131 53.2914 43.5949 53.5085 43.3335 53.7848C42.9221 54.2585 42.6619 54.8433 42.5863 55.4646C42.5106 56.0859 42.6228 56.7155 42.9086 57.2732C43.1044 57.6526 43.3909 57.9785 43.743 58.2222C44.2631 58.5333 44.8085 58.8006 45.3735 59.0211C46.1081 59.3316 46.5586 59.6165 46.748 59.8939C46.9316 60.1587 47.0298 60.4729 47.0296 60.7946C47.0403 61.2035 46.8938 61.6011 46.62 61.9065C46.4652 62.0629 46.2783 62.1844 46.0721 62.2625C45.8658 62.3407 45.645 62.3737 45.4247 62.3594C44.3829 62.3594 43.7225 61.7156 43.4615 60.446L42.1817 60.8429C42.5989 62.713 43.6637 63.6621 45.353 63.6621C46.341 63.6621 47.1217 63.3567 47.6567 62.7563C48.2047 62.1544 48.5005 61.367 48.4834 60.5554C48.5011 60.0735 48.4019 59.5944 48.1942 59.1585Z" fill="black"/>
<path d="M53.7844 58.1026L53.6231 58.0542L53.7767 57.983C54.2259 57.7967 54.6059 57.4763 54.864 57.0661C55.1221 56.6559 55.2458 56.1761 55.2178 55.6931C55.2357 55.3285 55.1811 54.964 55.0573 54.6205C54.9334 54.2769 54.7427 53.9609 54.496 53.6906C54.233 53.4389 53.9207 53.2438 53.5785 53.1173C53.2364 52.9907 52.8717 52.9356 52.5071 52.9553C51.0533 52.9553 50.096 53.7746 49.666 55.3903L50.8587 55.6956C51.1147 54.6778 51.6266 54.1537 52.3945 54.1537C52.5907 54.1441 52.7864 54.1819 52.9647 54.2639C53.143 54.3459 53.2987 54.4696 53.4184 54.6244C53.6327 54.9613 53.7559 55.3474 53.776 55.7454C53.7962 56.1435 53.7127 56.54 53.5335 56.8965C53.404 57.1357 53.1951 57.3227 52.9423 57.4258C52.6327 57.5171 52.3102 57.5575 51.9875 57.5454H51.4551V58.6903H51.9875C52.7349 58.6903 53.2673 58.8608 53.5412 59.1992C53.8338 59.5657 53.9845 60.0242 53.9661 60.4917C53.9661 61.1558 53.8074 61.6469 53.4977 61.9573C53.3534 62.1057 53.1804 62.2235 52.989 62.3035C52.7976 62.3835 52.5919 62.4241 52.3843 62.4229C51.4679 62.4229 50.8818 61.8275 50.6361 60.6419L49.4126 60.9624C49.5661 61.8988 49.9245 62.5858 50.4594 62.9979C51.0398 63.438 51.7544 63.667 52.4841 63.6468C52.882 63.6611 53.2788 63.5963 53.6511 63.456C54.0234 63.3157 54.3637 63.1029 54.6521 62.83C55.2101 62.2881 55.4942 61.5349 55.4942 60.5859C55.4789 59.2603 54.926 58.4435 53.7844 58.1026Z" fill="black"/>
</svg>

<svg xmlns="http://www.w3.org/2000/svg" width="100" height="100" fill="none"><path fill="#8C3123" d="M3.749 37.124 1 38.48v23.986l2.749 1.359.015-.02v-26.68z"/><path fill="#E05243" d="m18.462 60.344-14.713 3.48v-26.7l14.713 3.395v19.823"/><path fill="#8C3123" d="m11.822 54.894 6.24.789.039-.09.036-10.177-.075-.078-6.24.78z"/><path fill="#8C3123" d="m18.062 60.382 14.311 3.458.023-.036V37.137l-.023-.023-14.31 3.445z"/><path fill="#E05243" d="m24.293 54.894-6.243.789V45.34l6.243.778z"/><path fill="#5E1F18" d="m24.293 41.877-6.23 1.13-6.24-1.13 6.232-1.623z"/><path fill="#F2B0A9" d="m24.293 59.125-6.23-1.137-6.24 1.137 6.232 1.73z"/><path fill="#8C3123" d="m11.822 41.877 6.24-1.527.052-.015V30.041L18.062 30l-6.24 3.102z"/><path fill="#E05243" d="M24.293 41.877 18.05 40.35V30l6.243 3.102z"/><path fill="#8C3123" d="M18.062 71 11.82 67.91v-8.786l6.24 1.527.093.104-.026 10.058-.066.178"/><path fill="#E05243" d="m18.062 71 6.23-3.089v-8.786l-6.242 1.527v10.34m14.323-33.868 2.752 1.367v23.975l-2.752 1.374z"/><path fill="#201C1D" d="M75.032 41.56v-1.273a.31.31 0 0 1 .2-.304.3.3 0 0 1 .127-.022h5.78a.325.325 0 0 1 .309.2.3.3 0 0 1 .024.126v1.086c0 .184-.159.425-.435.807l-2.993 4.252a6.4 6.4 0 0 1 3.297.702.59.59 0 0 1 .307.509v1.369c0 .185-.207.404-.424.292a6.69 6.69 0 0 0-6.105 0c-.2.11-.41-.11-.41-.295v-1.3c-.019-.309.055-.616.213-.883l3.468-4.946h-3.025a.32.32 0 0 1-.31-.197.3.3 0 0 1-.023-.127M53.95 49.564h-1.758a.33.33 0 0 1-.315-.298v-8.969a.327.327 0 0 1 .338-.323h1.638a.33.33 0 0 1 .32.3v1.176h.034c.427-1.133 1.23-1.662 2.303-1.662s1.792.53 2.284 1.662c.163-.427.437-.803.794-1.09a2.603 2.603 0 0 1 3.67.408c.555.763.442 1.85.442 2.811v5.661a.33.33 0 0 1-.338.326h-1.755a.336.336 0 0 1-.318-.326v-4.755q.039-.843-.048-1.682c-.131-.603-.512-.763-1.024-.763a1.17 1.17 0 0 0-1.052.735c-.182.453-.164 1.209-.164 1.718v4.747a.33.33 0 0 1-.21.303.3.3 0 0 1-.128.023h-1.756a.334.334 0 0 1-.317-.326v-4.755c0-1 .166-2.473-1.083-2.473-1.25 0-1.213 1.435-1.213 2.473v4.755a.33.33 0 0 1-.338.326M86.445 39.786c2.608 0 4.021 2.226 4.021 5.058 0 2.735-1.561 4.905-4.02 4.905-2.56 0-3.958-2.226-3.958-5.002s1.413-4.961 3.957-4.961m.015 1.832c-1.295 0-1.377 1.755-1.377 2.85 0 1.093-.017 3.434 1.362 3.434s1.426-1.888 1.426-3.038a8.2 8.2 0 0 0-.256-2.379 1.1 1.1 0 0 0-.412-.647 1.1 1.1 0 0 0-.737-.22M93.848 49.564h-1.751a.336.336 0 0 1-.318-.326v-8.969a.33.33 0 0 1 .343-.292h1.63a.34.34 0 0 1 .316.254v1.371h.033c.491-1.226 1.182-1.811 2.396-1.811a2.32 2.32 0 0 1 2.047 1.056c.461.717.461 1.923.461 2.798v5.636a.336.336 0 0 1-.338.283h-1.763a.334.334 0 0 1-.313-.283V44.41c0-.98.113-2.417-1.1-2.417a1.15 1.15 0 0 0-1.024.717 3.95 3.95 0 0 0-.28 1.7v4.834a.335.335 0 0 1-.342.326M50.508 47.92c-.322-.443-.663-.802-.663-1.62v-2.723c0-1.153.082-2.211-.768-3.005-.675-.644-1.791-.87-2.649-.87-1.671 0-3.537.618-3.931 2.674a.31.31 0 0 0 .14.322.3.3 0 0 0 .115.044l1.708.18a.37.37 0 0 0 .31-.32c.145-.707.744-1.048 1.415-1.048a1.18 1.18 0 0 1 .985.455c.256.36.213.85.213 1.273v.226c-1.024.114-2.352.188-3.307.608a3 3 0 0 0-1.39 1.135 2.96 2.96 0 0 0-.484 1.723c0 1.816 1.152 2.722 2.631 2.722 1.252 0 1.933-.293 2.898-1.272a4.3 4.3 0 0 0 1.003 1.168.37.37 0 0 0 .415-.041c.35-.31.988-.863 1.346-1.16a.33.33 0 0 0 .084-.361.3.3 0 0 0-.07-.11m-3.46-.786a1.42 1.42 0 0 1-1.216.794c-.676 0-1.068-.51-1.068-1.273 0-1.488 1.344-1.76 2.614-1.76v.379c0 .687.015 1.264-.33 1.86M73.555 47.92c-.323-.443-.663-.802-.663-1.62v-2.723c0-1.153.082-2.211-.768-3.005-.676-.644-1.792-.87-2.65-.87-1.67 0-3.54.618-3.93 2.674a.306.306 0 0 0 .255.366l1.705.18a.37.37 0 0 0 .307-.32c.146-.707.742-1.048 1.413-1.048a1.18 1.18 0 0 1 .985.455c.256.36.215.85.215 1.273v.226c-1.023.114-2.352.188-3.307.608a3 3 0 0 0-1.386 1.13 2.96 2.96 0 0 0-.485 1.717c0 1.817 1.15 2.723 2.632 2.723 1.249 0 1.932-.293 2.897-1.272.26.45.601.85 1.006 1.178a.37.37 0 0 0 .415-.041c.35-.31.988-.863 1.346-1.16a.33.33 0 0 0 .013-.471m-3.458-.786a1.42 1.42 0 0 1-1.216.794c-.676 0-1.07-.51-1.07-1.273 0-1.488 1.344-1.76 2.616-1.76v.379c-.003.687.015 1.264-.333 1.86z"/><path fill="#000" d="M48.194 59.159a2.7 2.7 0 0 0-.824-.962 8 8 0 0 0-1.472-.764c-.55-.2-1.068-.479-1.536-.829a1.25 1.25 0 0 1-.399-.964 1.47 1.47 0 0 1 .35-.967 1.24 1.24 0 0 1 1.004-.428 1.47 1.47 0 0 1 1.098.415c.297.343.508.75.617 1.188l1.221-.468c-.422-1.61-1.39-2.425-2.872-2.425a2.67 2.67 0 0 0-2.047.83 3.14 3.14 0 0 0-.425 3.488c.195.38.482.705.834.95q.782.467 1.63.798c.735.31 1.186.596 1.375.873.184.265.282.579.282.9.01.41-.136.807-.41 1.113a1.54 1.54 0 0 1-1.195.452c-1.042 0-1.703-.643-1.963-1.913l-1.28.397c.417 1.87 1.482 2.82 3.171 2.82.988 0 1.769-.306 2.304-.907a3.17 3.17 0 0 0 .826-2.2 3 3 0 0 0-.289-1.398M53.784 58.103l-.16-.049.153-.071c.449-.186.829-.507 1.087-.917s.382-.89.354-1.373a2.76 2.76 0 0 0-.722-2.002 2.66 2.66 0 0 0-1.989-.736c-1.454 0-2.411.82-2.841 2.435l1.193.306c.256-1.018.768-1.542 1.535-1.542a1.22 1.22 0 0 1 1.024.47 2.3 2.3 0 0 1 .115 2.273c-.129.239-.338.426-.59.529a3 3 0 0 1-.956.12h-.532v1.144h.532c.748 0 1.28.17 1.554.51.293.366.444.824.425 1.292 0 .664-.159 1.155-.468 1.465a1.54 1.54 0 0 1-1.114.466c-.916 0-1.502-.596-1.748-1.781l-1.223.32c.153.937.512 1.624 1.046 2.036.58.44 1.295.669 2.025.649a3 3 0 0 0 2.168-.817c.558-.542.842-1.295.842-2.244-.015-1.326-.568-2.142-1.71-2.483"/></svg>
